assets/images/icons/library/filter.svg

<?xml version="1.0" encoding="utf-8"?><!-- Uploaded to: SVG Repo, www.svgrepo.com, Generator: SVG Repo Mixer Tools -->
<svg width="800px" height="800px" viewBox="0 0 24 24" fill="none" xmlns="http://www.w3.org/2000/svg">
<path d="M3.38589 5.66687C2.62955 4.82155 2.25138 4.39889 2.23712 4.03968C2.22473 3.72764 2.35882 3.42772 2.59963 3.22889C2.87684 3 3.44399 3 4.57828 3H19.4212C20.5555 3 21.1227 3 21.3999 3.22889C21.6407 3.42772 21.7748 3.72764 21.7624 4.03968C21.7481 4.39889 21.3699 4.82155 20.6136 5.66687L14.9074 12.0444C14.7566 12.2129 14.6812 12.2972 14.6275 12.3931C14.5798 12.4781 14.5448 12.5697 14.5236 12.6648C14.4997 12.7721 14.4997 12.8852 14.4997 13.1113V18.4584C14.4997 18.6539 14.4997 18.7517 14.4682 18.8363C14.4403 18.911 14.395 18.9779 14.336 19.0315C14.2692 19.0922 14.1784 19.1285 13.9969 19.2012L10.5969 20.5612C10.2293 20.7082 10.0455 20.7817 9.89802 20.751C9.76901 20.7242 9.6558 20.6476 9.583 20.5377C9.49975 20.4122 9.49975 20.2142 9.49975 19.8184V13.1113C9.49975 12.8852 9.49975 12.7721 9.47587 12.6648C9.45469 12.5697 9.41971 12.4781 9.37204 12.3931C9.31828 12.2972 9.2429 12.2129 9.09213 12.0444L3.38589 5.66687Z" stroke="#000000" stroke-width="2" stroke-linecap="round" stroke-linejoin="round"/>
</svg>

<svg xmlns="http://www.w3.org/2000/svg" width="800" height="800" fill="none" viewBox="0 0 24 24"><path stroke="#000" stroke-linecap="round" stroke-linejoin="round" stroke-width="2" d="M3.386 5.667C2.63 4.822 2.25 4.399 2.237 4.04a1 1 0 0 1 .363-.811C2.877 3 3.444 3 4.578 3h14.843c1.134 0 1.702 0 1.979.229a1 1 0 0 1 .362.81c-.014.36-.392.783-1.148 1.628l-5.707 6.377c-.15.169-.226.253-.28.35a1 1 0 0 0-.103.27c-.024.108-.024.221-.024.447v5.347c0 .196 0 .294-.032.378a.5.5 0 0 1-.132.196c-.067.06-.158.096-.34.17l-3.4 1.36c-.367.146-.55.22-.698.189a.5.5 0 0 1-.315-.213c-.083-.126-.083-.324-.083-.72v-6.707c0-.226 0-.339-.024-.446a1 1 0 0 0-.104-.272c-.054-.096-.13-.18-.28-.349z"/></svg>
